X: 36810
T: Shetland Rose
R: reel
M: 4/4
K: Amajor
M:3/4
d2|cA (3AAA BA|F3E FG|AG AB cd|B4 d2|
cA (3AAA BA|F3E FG|AGAc BG|A4:|
|:e2|f2 dc de|f3e fg|a2 AB Bc|c3d Bd|
c2 FEFG|A3B cd|(3efe dc dc|B4 e2|
f2 dc de|f3e fg|a2 ga ba|e3f ed|
cA (3AAA BA|F3E FG|AG Ac BG|A4:|

